X: 26
T: 2 AM Turtle Patrol, The
R: jig
M: 6/8
K: Emajor
BBB gBg|bgg gfe|eff fef|gfg fec|
BBB gBg|bgg gfe|fef geB|cee e2 c:|
a2 g fga|bgg gfe|eff fef|gfg feg|
a2 g fga|bgg gfe|fef geB|cee e2 g|
a2 g fga|bgg gfe|eff fef|gfg fec|
BBB gBg|bgg gfe|fef geB|cee e3||

